X: 801
T: Guan huadeng
%%abc-version 2.0
%%abcx-abcm2ps-target-version 5.9.1 (29 Sep 2008)
%%abc-creator hum2abc beta
%%abcx-conversion-date 2013/10/02 07:52:31
%%abc-edited-by Helmut Schaffrath
%%humdrum-veritas 3876080659
%%humdrum-veritas-data 2396399389
%%continueall 1
%%barnumbers 0
L: 1/8
M: 4/4
K: F
c2c2c2c f [I:setbarnb 1]| 
d c B AG4 | 
c2c2c2c f | 
d c B AG4 | 
G2c2A c A G | 
c2D F G A G F | 
C2F2F2F A | 
G F E DC4 | 
G2>F2G4 | 
A G F AG4 | 
C2F2F2F A | 
G F E DC4 |]  



